X: 28382
T: Muiñeira De Vilanova
R: jig
M: 6/8
K: Dmajor
|:d2c Bdc|A2B GEC|E2D DEF|GFE AFD|
d2c Bdc|A2B GEC|E2D DEF|GFE D3:|
|:AFA DFA|dcd B2G|GFG EGA|cBc A2F|
AFA DFA|dcd B2G|BGB ABA|1 GFE F2D:|2 GFE D3||
|:DFA dcd|edc B2A|FGA A2G|EFG G2F|
DFA dcd|edc B2A|FGA ABA|GFE D3:|

